X:1
T:Turn Your Eyes upon Jesus
T:Turn Your Eyes upon Jesus
T:Helen Howarth Lemmel
T:Helen Howarth Lemmel, 1922
T:Public Domain Courtesy of the Cyber Hymnal™
T:Public Domain Courtesy of the Cyber Hymnal™
C:Helen Howarth Lemmel
Z:Public Domain
Z:Courtesy of the Cyber Hymnal™
%%score ( 1 2 ) ( 3 4 )
L:1/8
Q:1/4=140
M:3/4
K:F
V:1 treble 
V:2 treble 
V:3 bass 
V:4 bass 
V:1
 [FA]2 | [FA]2 [F^G]2 [FA]2 | [Fc]2 [FB]2 [_EA]2 | [DA]6 | [DG]4 D2 | [CF]2 [CE]2 [CF]2 | %6
w: 1.~O|soul, are you|wear- y and|trou-|bled? No|light in the|
w: 2.~Through|death in- to|life ev- er-|last-|ing He|passed, and we|
w: 3.~His|Word shall not|fail you— He|prom-|ised; Be-|lieve Him, and|
 [EA]2 [EG]2 C2 | [FA]6- | [FA]4 [FA][FA] | [FA]2 [F^G]2 [FA]2 | [Fd]2 [Fc]2 [FA]2 | [FA]6 | %12
w: dark- ness you|see?|* There’s a|light for a|look at the|Sav-|
w: fol- low Him|there;|* Ov- er|us sin no|more hath do-|min-|
w: all will be|well:|* Th- en|go to a|world that is|dy-|
 G4 [EG]2 | [FA]2 [D=B]2 [^Dc]2 | E2 [CF]2 [=B,D]2 | C6- | C6 ||"^Refrain" [CA]4 [CA]2 | %18
w: ior, And|life more a-|bun- dant and|free!|||
w: ion— For|more than con-|quer- ors we|are!||Turn your|
w: ing, His|pe- rfect sal-|va- tion to|tell!|||
 [Ec]3 [EA] [EG]2 | F6 | [_EF]4 [EF]2 | [DB]2 [DB]2 [DB]2 | [Dd]2 [DB]2 [DA]2 | G6- | %24
w: ||||||
w: eyes up- on|Je-|sus, Look|full in His|won- der- ful|face,|
w: ||||||
 [EG]4 [FA][FB] | [Fc]4 [Ec]2 | [Fc]2 [FA]2 [EG]2 | F4 [_EF]2 | [DF]4 F[FG] | [FA]3 [EG] [FA]2 | %30
w: ||||||
w: * And the|things of|earth will grow|strange- ly|dim, In the|light of His|
w: ||||||
 [EB]2 [EA]2 [EG]2 | [CF]4 |] %32
w: ||
w: glo- ry and|grace.|
w: ||
V:2
 x2 | x6 | x6 | x6 | x4 D2 | x6 | x4 C2 | x6 | x6 | x6 | x6 | x6 | G4 x2 | x6 | E2 x4 | C6- | C6 || %17
 x6 | x6 | F6 | x6 | x6 | x6 | D2 C2 D2 | x6 | x6 | x6 | F4 x2 | x4 F x | x6 | x6 | x4 |] %32
V:3
 [F,C]2 | [F,C]2 [F,=B,]2 [F,C]2 | [F,A,]2 [D,F,]2 [C,F,]2 | (F,4 ^F,2) | [B,,G,]4 [B,,B,]2 | %5
 [C,A,]2 [C,G,]2 [C,A,]2 | [C,C]2 [C,B,]2 [E,G,]2 | [F,C]6- | [F,C]4 [F,C][F,C] | %9
 [F,C]2 [F,=B,]2 [F,C]2 | [F,B,]2 [F,A,]2 [F,C]2 | [D,=B,]6 | [E,C]4 [C,C]2 | %13
 [F,C]2 [F,G,]2 [^F,A,]2 | [G,C]2 [D,A,]2 [G,,F,]2 | ([C,E,]4 [D,F,]2 | [E,G,]6) || F,4 F,2 | %18
 [C,G,]3 [C,C] [C,B,]2 | [D,A,]6 | [C,A,]4 [F,A,]2 | [B,,B,]2 [B,,A,]2 [B,,G,]2 | %22
 [B,,F,]2 [B,,G,]2 [=B,,F,]2 | F,2 E,2 F,2 | [C,G,]4 F,[F,G,] | [F,A,]4 [G,B,]2 | %26
 [A,C]2 [F,C]2 [^C,B,]2 | [D,A,]4 [C,A,]2 | [B,,B,]4 [D,A,][_D,B,] | [C,C]3 [C,C] [C,C]2 | %30
 [C,D]2 [C,C]2 [C,B,]2 | [F,A,]4 |] %32
V:4
 x2 | x6 | x6 | B,,6 | x6 | x6 | x6 | x6 | x6 | x6 | x6 | x6 | x6 | x6 | x6 | x6 | x6 || F,4 F,2 | %18
 x6 | x6 | x6 | x6 | x6 | C,6- | x4 F, x | x6 | x6 | x6 | x6 | x6 | x6 | x4 |] %32

